X: 1
T: Girl I Left Behind Me, The
M: 2/4
L: 1/8
R: polka
K: Gmaj
|:g/f/|ed BA|BG E>F|G2 G/A/B/c/|d2 dg/f/|
ed BA|BG E>G|FA DE/F/|G2 G:|
|:z/A/|Bd ef|gd BG|Bd ef|g2 f>^c|
ed BA|BG E>G|FA DE/F/|G2 G:|
